icons/key-24.svg

<svg width="24" height="24" viewBox="0 0 24 24" xmlns="http://www.w3.org/2000/svg">
  <path d="M16.75 8.5C17.4404 8.5 18 7.94036 18 7.25C18 6.55964 17.4404 6 16.75 6C16.0596 6 15.5 6.55964 15.5 7.25C15.5 7.94036 16.0596 8.5 16.75 8.5Z"/>
  <path fill-rule="evenodd" clip-rule="evenodd" d="M15.75 0C11.1937 0 7.5 3.69365 7.5 8.25C7.5 9.13546 7.63976 9.98954 7.89882 10.7906L0.512563 18.1769C0.184374 18.5051 0 18.9502 0 19.4143V22.2501C0 23.2166 0.783502 24.0001 1.75 24.0001H3.25C4.2165 24.0001 5 23.2166 5 22.2501V21.2499C5 21.1118 5.11193 20.9999 5.25 20.9999H7.98528C8.18556 21.0038 8.38343 20.9273 8.53045 20.7803L8.74371 20.5671C8.90781 20.403 9 20.1804 9 19.9483V18.4999C9 18.3618 9.11193 18.2499 9.25 18.2499H10.336C10.8002 18.2499 11.2453 18.0655 11.5735 17.7373L13.2095 16.1012C14.0106 16.3603 14.8646 16.5 15.75 16.5C20.3063 16.5 24 12.8063 24 8.25C24 3.69365 20.3063 0 15.75 0ZM9 8.25C9 4.52208 12.0221 1.5 15.75 1.5C19.4779 1.5 22.5 4.52208 22.5 8.25C22.5 11.9779 19.4779 15 15.75 15C14.8799 15 14.05 14.8357 13.2882 14.5372C13.0107 14.4285 12.695 14.4944 12.4842 14.7052L10.5128 16.6766C10.4659 16.7235 10.4023 16.7499 10.336 16.7499H9.25C8.2835 16.7499 7.5 17.5334 7.5 18.4999V19.4999H5.25C4.2835 19.4999 3.5 20.2834 3.5 21.2499V22.2501C3.5 22.3882 3.38807 22.5001 3.25 22.5001H1.75C1.61193 22.5001 1.5 22.3882 1.5 22.2501V19.4143C1.5 19.348 1.52634 19.2844 1.57322 19.2375L9.29486 11.5159C9.50566 11.3051 9.5716 10.9895 9.46282 10.7119C9.16427 9.95014 9 9.12015 9 8.25Z"/>
</svg>

<svg xmlns="http://www.w3.org/2000/svg" width="24" height="24" viewBox="0 0 24 24"><path d="M16.75 8.5a1.25 1.25 0 100-2.5 1.25 1.25 0 000 2.5z"/><path fill-rule="evenodd" d="M15.75 0a8.25 8.25 0 00-7.851 10.79L.513 18.178A1.75 1.75 0 000 19.414v2.836C0 23.217.784 24 1.75 24h1.5A1.75 1.75 0 005 22.25v-1a.25.25 0 01.25-.25h2.735a.75.75 0 00.545-.22l.214-.213A.875.875 0 009 19.948V18.5a.25.25 0 01.25-.25h1.086c.464 0 .91-.184 1.237-.513l1.636-1.636A8.25 8.25 0 1015.75 0zM9 8.25a6.75 6.75 0 114.288 6.287.75.75 0 00-.804.168l-1.971 1.972a.25.25 0 01-.177.073H9.25A1.75 1.75 0 007.5 18.5v1H5.25a1.75 1.75 0 00-1.75 1.75v1a.25.25 0 01-.25.25h-1.5a.25.25 0 01-.25-.25v-2.836a.25.25 0 01.073-.177l7.722-7.721a.75.75 0 00.168-.804A6.73 6.73 0 019 8.25z"/></svg>
